X:73
T:Grinders,The. TJD.73
M:9/8
L:1/8
Q:1/4=120
S:T.J.Dixon MS2, Lincolnshire, early 19thC
R:slip jig
A:Lincolnshire, Holton le Moor
Z:vmp.R.Greig2010
K:G
gfg edc BAG|gfg efg afd|gfg edc BAG|ABAA2B d2B:|!
|:ABAA2BG2E|ABAA2Bd2B|ABAA2BG2E|dBG GBdd2B:|

